images_breeze_svg/cmd/32/mailmergecreatedocuments.svg

<svg viewBox="0 0 32 32" xmlns="http://www.w3.org/2000/svg"><path d="m10 4-1 1-4 4-1 1v1 13h7v3h4v-1h-3v-12h6v-6h7v7h1v-3-1-4h-7v-3h-8zm1 1h7v2h-1l-1 1-4 4-1 1v1 9h-6v-12h6zm13.398438 10-5.111329 5.111328-3.287109 3.285156v3.603516h3.603516l8.396484-8.398438zm-2.048829 3.490234 2.16211 2.160157-3.175781 3.175781v-.675781l-1.011719.021484h-1.03711v-1.035156-.585938l1.441407-1.439453zm-4.074218 4.074219v1.621094h1.035156.990234l.021485.652344-1.080078 1.082031h-1.441407l-.71875-.720703v-1.441407z" fill="#4d4d4d"/></svg>

<?xml version="1.0" encoding="UTF-8" standalone="no"?>
<svg
   xmlns:dc="http://purl.org/dc/elements/1.1/"
   xmlns:cc="http://creativecommons.org/ns#"
   xmlns:rdf="http://www.w3.org/1999/02/22-rdf-syntax-ns#"
   xmlns:svg="http://www.w3.org/2000/svg"
   xmlns="http://www.w3.org/2000/svg"
   xmlns:sodipodi="http://sodipodi.sourceforge.net/DTD/sodipodi-0.dtd"
   xmlns:inkscape="http://www.inkscape.org/namespaces/inkscape"
   viewBox="0 0 32 32"
   version="1.1"
   id="svg6"
   sodipodi:docname="mailmergecreatedocuments.svg"
   inkscape:export-filename="/home/rizmut/Dokumen/Rizmut/Github/libreoffice-style-breeze/images_breeze/cmd/32/mailmergecreatedocuments.png"
   inkscape:export-xdpi="96"
   inkscape:export-ydpi="96"
   inkscape:version="0.92.4 (unknown)">
  <metadata
     id="metadata12">
    <rdf:RDF>
      <cc:Work
         rdf:about="">
        <dc:format>image/svg+xml</dc:format>
        <dc:type
           rdf:resource="http://purl.org/dc/dcmitype/StillImage" />
        <dc:title></dc:title>
      </cc:Work>
    </rdf:RDF>
  </metadata>
  <defs
     id="defs10" />
  <sodipodi:namedview
     pagecolor="#ffffff"
     bordercolor="#666666"
     borderopacity="1"
     objecttolerance="10"
     gridtolerance="10"
     guidetolerance="10"
     inkscape:pageopacity="0"
     inkscape:pageshadow="2"
     inkscape:window-width="1360"
     inkscape:window-height="714"
     id="namedview8"
     showgrid="true"
     inkscape:zoom="14.75"
     inkscape:cx="18.666284"
     inkscape:cy="17.382739"
     inkscape:window-x="0"
     inkscape:window-y="28"
     inkscape:window-maximized="1"
     inkscape:current-layer="svg6">
    <inkscape:grid
       type="xygrid"
       id="grid822" />
  </sodipodi:namedview>
  <path
     style="fill:#4d4d4d"
     d="M 10 4 L 9 5 L 5 9 L 4 10 L 4 11 L 4 24 L 11 24 L 11 27 L 15 27 L 15 26 L 12 26 L 12 14 L 18 14 L 18 8 L 25 8 L 25 15 L 26 15 L 26 12 L 26 11 L 26 7 L 19 7 L 19 4 L 11 4 L 10 4 z M 11 5 L 18 5 L 18 7 L 17 7 L 16 8 L 12 12 L 11 13 L 11 14 L 11 23 L 5 23 L 5 11 L 11 11 L 11 5 z M 24.398438 15 L 19.287109 20.111328 L 16 23.396484 L 16 27 L 19.603516 27 L 28 18.601562 L 24.398438 15 z M 22.349609 18.490234 L 24.511719 20.650391 L 21.335938 23.826172 L 21.335938 23.150391 L 20.324219 23.171875 L 19.287109 23.171875 L 19.287109 22.136719 L 19.287109 21.550781 L 20.728516 20.111328 L 22.349609 18.490234 z M 18.275391 22.564453 L 18.275391 24.185547 L 19.310547 24.185547 L 20.300781 24.185547 L 20.322266 24.837891 L 19.242188 25.919922 L 17.800781 25.919922 L 17.082031 25.199219 L 17.082031 23.757812 L 18.275391 22.564453 z "
     id="path4" />
</svg>
